X:393
T:By Golly
R:jig
H:See also #215
D:Micheal O'Suillebhean
D:Tim Collins
Z:id:hn-jig-393
M:6/8
L:1/8
K:D
dcA GFG | Adc d2e | dcA GFG | AGE E2d | 
dcA GFG | Adc d2e | fed e2d | cAG A2d :| 
|: efg efg | efe dcd | efg ~a3 | age dcd |
efg efg | aba g2e | fed e2d | cAG A2d :| 
P:variations
dcA GFG | Add d3 | dcA G2B | AGE ~E3 | 
dcA GFG | Adc d2e | fdd e2d | cBc Ac/d/e |
dcA GFG | Adc d3 | dcA GAB | AGE EDE | 
dcA GFG | Adc d2e | fdd e2d | cAA A2d ||
|: efg efg | ef/g/e dcd | efg aba | age edd |
[1 efg efg | ef/g/e dcd | fed e2d | cAA A2d :|
[2 efg a2g | ef/g/e dcd | fdd e2d | cAA Ac/d/e ||

